src/widgets/FAQ/_i/bubbles.svg

<svg width="160" height="170" viewBox="0 0 160 170" fill="none" xmlns="http://www.w3.org/2000/svg">
<path d="M60.0659 43.8813C65.5907 43.8814 70.6905 45.511 75.0112 48.3442C77.9153 50.2567 80.4654 52.736 82.4487 55.6401C84.0778 55.0027 85.7068 54.4352 87.4067 54.0103C90.7358 53.1603 94.2069 52.7359 97.7485 52.7358L98.7573 52.7495C109.876 53.0309 119.944 57.6475 127.287 64.9897C134.866 72.5688 139.47 82.8397 139.541 94.2437C136.424 91.3395 132.599 89.2144 128.419 88.0103C127.144 81.9896 124.099 76.6059 119.919 72.356C114.253 66.6895 106.39 63.1479 97.7485 63.1479C95.0571 63.148 92.4365 63.5027 89.9575 64.1401C87.4075 64.7776 85.0694 65.6982 82.8735 66.8315C82.6611 66.9732 82.4483 67.1152 82.2358 67.186C79.5444 68.3189 76.4991 67.1146 75.3657 64.4233C74.0907 61.3775 71.8943 58.8275 69.2026 56.9858C66.5818 55.2859 63.3946 54.2231 59.9946 54.2231C55.3905 54.2231 51.2114 56.065 48.1655 59.1108C45.1197 62.1567 43.2778 66.3358 43.2778 70.9399C43.2779 75.544 45.1197 79.7233 48.1655 82.769C51.2114 85.8148 55.3905 87.6567 59.9946 87.6567H61.3403C64.2445 87.7984 66.44 90.2067 66.2983 93.1108V94.5269C66.2983 103.168 69.8407 111.031 75.5073 116.698C80.9482 122.139 88.3624 125.606 96.6255 125.904C94.9418 122.368 93.9947 118.404 93.9946 114.219C93.9946 106.711 97.0407 99.9104 101.928 95.0229C106.816 90.1356 113.615 87.0894 121.124 87.0894C128.632 87.0894 135.432 90.1354 140.32 95.0229C145.207 99.9104 148.253 106.711 148.253 114.219C148.253 121.727 145.207 128.527 140.32 133.415C135.432 138.302 128.632 141.348 121.124 141.348C114.951 141.348 109.258 139.288 104.712 135.84C102.481 136.183 100.115 136.39 97.7485 136.39C86.2028 136.39 75.7193 131.714 68.1401 124.135C61.2695 117.264 56.807 108.056 56.0278 97.856C50.1488 97.0059 44.8362 94.244 40.8696 90.2065C35.9821 85.319 32.936 78.5186 32.936 71.0103C32.9361 63.5021 35.9822 56.7024 40.8696 51.8149C45.7571 46.9274 52.5576 43.8813 60.0659 43.8813ZM39.311 95.8022C44.1277 95.8022 48.52 97.7856 51.7075 100.973C54.8948 104.161 56.8774 108.552 56.8774 113.369C56.8774 118.185 54.895 122.578 51.7075 125.765C48.52 128.953 44.1277 130.936 39.311 130.936C34.4946 130.936 30.103 128.952 26.9155 125.765C23.728 122.578 21.7446 118.185 21.7446 113.369C21.7447 108.552 23.7281 104.161 26.9155 100.973C30.103 97.7857 34.4945 95.8023 39.311 95.8022ZM121.124 97.5024C116.519 97.5025 112.34 99.3444 109.294 102.39C106.249 105.436 104.407 109.615 104.407 114.219C104.407 118.823 106.249 123.003 109.294 126.048C112.34 129.094 116.52 130.935 121.124 130.935C125.728 130.935 129.907 129.094 132.953 126.048C135.998 123.003 137.84 118.823 137.84 114.219C137.84 109.615 135.998 105.436 132.953 102.39C129.907 99.3443 125.728 97.5024 121.124 97.5024ZM39.311 102.815C36.3363 102.815 33.7157 104.019 31.8032 105.931C29.8907 107.844 28.686 110.465 28.686 113.44C28.6861 116.415 29.8908 119.035 31.8032 120.948C33.7157 122.86 36.3361 124.065 39.311 124.065C42.286 124.065 44.9073 122.86 46.8198 120.948C48.7321 119.035 49.936 116.415 49.936 113.44C49.936 110.465 48.7323 107.844 46.8198 105.931C44.9073 104.019 42.286 102.815 39.311 102.815ZM88.3276 28.6519C91.4442 28.6519 94.2071 29.9269 96.2612 31.981C98.3154 34.0351 99.52 36.7979 99.52 39.9146C99.52 43.0312 98.2446 45.794 96.2612 47.8481C94.2071 49.9023 91.4443 51.106 88.3276 51.106C85.2112 51.1059 82.4491 49.8313 80.395 47.8481C78.3409 45.794 77.0659 42.9604 77.0659 39.9146C77.066 36.8688 78.3404 34.0351 80.3237 31.981C82.3779 29.9269 85.1407 28.6519 88.2573 28.6519H88.3276ZM88.2573 35.6646C87.0532 35.6646 85.9901 36.1603 85.2817 36.8687C84.5027 37.6478 84.0777 38.7105 84.0776 39.9146C84.0776 41.1186 84.5735 42.1813 85.2817 42.9604C86.0609 43.7396 87.124 44.2358 88.2573 44.2358C89.3906 44.2358 90.5241 43.7396 91.3032 42.9604C92.0823 42.1813 92.5776 41.1186 92.5776 39.9146C92.5776 38.7105 92.0823 37.6478 91.3032 36.8687C90.5241 36.0895 89.4614 35.6646 88.2573 35.6646Z" fill="white"/>
</svg>

<svg xmlns="http://www.w3.org/2000/svg" width="160" height="170" fill="none" viewBox="0 0 160 170"><path fill="#fff" d="M60.066 43.881c5.525 0 10.624 1.63 14.945 4.463a27 27 0 0 1 7.438 7.296c1.629-.637 3.258-1.205 4.958-1.63 3.329-.85 6.8-1.274 10.342-1.274l1.008.014c11.119.28 21.187 4.898 28.53 12.24 7.579 7.579 12.183 17.85 12.254 29.254-3.117-2.904-6.942-5.03-11.122-6.234-1.275-6.02-4.32-11.404-8.5-15.654-5.666-5.666-13.529-9.208-22.17-9.208-2.692 0-5.312.355-7.791.992a32.6 32.6 0 0 0-7.084 2.692c-.213.141-.426.283-.638.354-2.692 1.133-5.737-.071-6.87-2.763-1.275-3.046-3.472-5.596-6.163-7.437-2.621-1.7-5.808-2.763-9.208-2.763a16.65 16.65 0 0 0-11.83 4.888 16.65 16.65 0 0 0-4.887 11.829c0 4.604 1.842 8.783 4.888 11.829a16.65 16.65 0 0 0 11.829 4.888h1.345c2.904.141 5.1 2.55 4.958 5.454v1.416c0 8.641 3.543 16.504 9.21 22.171 5.44 5.441 12.854 8.908 21.118 9.206a27.1 27.1 0 0 1-2.631-11.685 27.09 27.09 0 0 1 27.129-27.13 27.09 27.09 0 0 1 27.129 27.13 27.1 27.1 0 0 1-7.933 19.196 27.1 27.1 0 0 1-19.196 7.933 27.1 27.1 0 0 1-16.412-5.508c-2.231.343-4.597.55-6.963.55a41.76 41.76 0 0 1-29.609-12.255c-6.87-6.871-11.333-16.079-12.112-26.279-5.88-.85-11.192-3.612-15.158-7.65a27.1 27.1 0 0 1-7.934-19.196 27.087 27.087 0 0 1 27.13-27.129M39.31 95.802c4.817 0 9.209 1.984 12.397 5.171 3.187 3.188 5.17 7.579 5.17 12.396 0 4.816-1.983 9.209-5.17 12.396-3.188 3.188-7.58 5.171-12.397 5.171-4.816 0-9.208-1.984-12.395-5.171-3.188-3.187-5.171-7.58-5.171-12.396s1.983-9.208 5.17-12.396c3.188-3.187 7.58-5.17 12.396-5.17m81.813 1.7a16.65 16.65 0 0 0-11.83 4.888 16.65 16.65 0 0 0-4.887 11.829 16.65 16.65 0 0 0 4.887 11.829 16.65 16.65 0 0 0 11.83 4.887c4.604 0 8.783-1.841 11.829-4.887a16.65 16.65 0 0 0 4.887-11.829c0-4.604-1.842-8.783-4.887-11.829a16.65 16.65 0 0 0-11.829-4.888m-81.813 5.313a10.54 10.54 0 0 0-7.508 3.116c-1.912 1.913-3.117 4.534-3.117 7.509s1.205 5.595 3.117 7.508c1.913 1.912 4.533 3.117 7.508 3.117s5.596-1.205 7.509-3.117c1.912-1.913 3.116-4.533 3.116-7.508a10.54 10.54 0 0 0-3.116-7.509 10.54 10.54 0 0 0-7.509-3.116m49.017-74.163c3.116 0 5.88 1.275 7.933 3.329s3.259 4.817 3.259 7.934-1.275 5.879-3.259 7.933c-2.054 2.054-4.817 3.258-7.933 3.258-3.117 0-5.879-1.275-7.933-3.258-2.054-2.054-3.33-4.888-3.33-7.933.001-3.046 1.275-5.88 3.259-7.934 2.054-2.054 4.817-3.33 7.933-3.33zm-.07 7.013c-1.205 0-2.268.495-2.976 1.204-.78.779-1.204 1.842-1.204 3.046s.495 2.266 1.204 3.045c.779.78 1.842 1.276 2.975 1.276s2.267-.496 3.046-1.276a4.28 4.28 0 0 0 1.275-3.045 4.28 4.28 0 0 0-1.275-3.046c-.779-.78-1.842-1.204-3.046-1.204"/></svg>
